src/actions/22/path-clip-edit.svg

<svg xmlns="http://www.w3.org/2000/svg" viewBox="0 0 22 22">
  <defs id="defs3051">
    <style type="text/css" id="current-color-scheme">
      .ColorScheme-Text {
        color:#2e3440;
      }
      .ColorScheme-Highlight {
        color:#88c0d0;
      }
      </style>
  </defs>
 <path 
     style="fill:currentColor;fill-opacity:1;stroke:none" 
     d="M 3 4 L 3 18 L 19 18 L 19 4 L 3 4 z M 10.941406 5.078125 A 6 6 0 0 1 17 11 L 17 11.078125 A 6 6 0 0 1 11.019531 17.078125 A 6 6 0 0 1 5 11.117188 A 6 6 0 0 1 10.941406 5.078125 z "
     class="ColorScheme-Text"
     />
</svg>

<svg viewBox="0 0 22 22" xmlns="http://www.w3.org/2000/svg">
 <defs>
  <style type="text/css">.ColorScheme-Text {
        color:#2e3440;
      }
      .ColorScheme-Highlight {
        color:#88c0d0;
      }</style>
 </defs>
 <path class="ColorScheme-Text" d="m3 4v14h16v-14h-16zm7.9414 1.0781a6 6 0 0 1 6.0586 5.9219v0.078125a6 6 0 0 1-5.9805 6 6 6 0 0 1-6.0195-5.9609 6 6 0 0 1 5.9414-6.0391z" fill="currentColor"/>
</svg>
